src/assets/Devices/Steam Deck Back.svg

<svg width="1766" height="697" viewBox="0 0 1766 697" fill="none" xmlns="http://www.w3.org/2000/svg">
<path d="M377 449C377 436.85 386.85 427 399 427V427C411.15 427 421 436.85 421 449V549C421 561.15 411.15 571 399 571V571C386.85 571 377 561.15 377 549V449Z" stroke="white" stroke-width="0.5"/>
<path d="M433 449C433 436.85 442.85 427 455 427V427C467.15 427 477 436.85 477 449V549C477 561.15 467.15 571 455 571V571C442.85 571 433 561.15 433 549V449Z" stroke="white" stroke-width="0.5"/>
<path d="M489 449C489 436.85 498.85 427 511 427V427C523.15 427 533 436.85 533 449V549C533 561.15 523.15 571 511 571V571C498.85 571 489 561.15 489 549V449Z" stroke="white" stroke-width="0.5"/>
<path d="M545 449C545 436.85 554.85 427 567 427V427C579.15 427 589 436.85 589 449V549C589 561.15 579.15 571 567 571V571C554.85 571 545 561.15 545 549V449Z" stroke="white" stroke-width="0.5"/>
<path d="M601 449C601 436.85 610.85 427 623 427V427C635.15 427 645 436.85 645 449V549C645 561.15 635.15 571 623 571V571C610.85 571 601 561.15 601 549V449Z" stroke="white" stroke-width="0.5"/>
<path d="M657 449C657 436.85 666.85 427 679 427V427C691.15 427 701 436.85 701 449V549C701 561.15 691.15 571 679 571V571C666.85 571 657 561.15 657 549V449Z" stroke="white" stroke-width="0.5"/>
<path d="M1743.35 56.351C1733.32 39.7229 1723.32 27.4736 1694.79 15.0268C1679.64 8.42043 1664.69 5.53517 1646.73 4.07332C1628.47 2.58769 1606.75 3.07728 1597.67 3.07728H1500.55C1496.54 3.07728 1491.53 3.07727 1492.03 7.06033C1492.54 11.0434 1492.03 22.9927 1511.56 21.9969C1531.08 21.0011 1557.62 26.9758 1568.63 49.8785C1579.64 72.7812 1590.16 95.684 1597.67 109.625C1605.18 123.566 1626.2 139 1649.73 139H1714.31C1730.33 139 1734.34 137.506 1746.35 119.085C1758.37 100.663 1755.36 76.2664 1743.35 56.351Z" stroke="white"/>
<path d="M22.6526 56.351C32.6847 39.7229 42.677 27.4736 71.2126 15.0268C86.3584 8.42043 101.309 5.53517 119.273 4.07332C137.529 2.58769 159.25 3.07728 168.334 3.07728H265.455C269.46 3.07728 274.466 3.07727 273.965 7.06033C273.465 11.0434 273.965 22.9927 254.441 21.9969C234.917 21.0011 208.384 26.9758 197.37 49.8785C186.356 72.7812 175.843 95.684 168.334 109.625C160.824 123.566 139.798 139 116.269 139H51.6887C35.6688 139 31.6638 137.506 19.6489 119.085C7.63391 100.663 10.6372 76.2664 22.6526 56.351Z" stroke="white"/>
<path d="M22.6526 56.351C32.6847 39.7229 42.6769 27.4736 71.2126 15.0268C86.3583 8.42042 101.309 5.53516 119.273 4.07331C137.529 2.58768 159.25 3.07726 168.334 3.07726H265.455C269.46 3.07726 274.466 3.07726 273.965 7.06032C273.465 11.0434 273.524 17.4958 254 16.5C234.476 15.5042 215.303 13 192.5 39.5C175.5 59.2564 167 83 150 83C134.165 83 131.029 77.5 107.5 77.5C83.9707 77.5 71.0454 82.2867 56.5 89C43.5 95 32 106 24.5 99.5C7.87964 85.0957 18.0378 64 22.6526 56.351Z" stroke="white" stroke-width="0.5"/>
<path d="M1743.35 56.351C1733.32 39.7229 1723.32 27.4736 1694.79 15.0268C1679.64 8.42042 1664.69 5.53516 1646.73 4.07331C1628.47 2.58768 1606.75 3.07726 1597.67 3.07726H1500.55C1496.54 3.07726 1491.53 3.07726 1492.03 7.06032C1492.54 11.0434 1492.48 17.4958 1512 16.5C1531.52 15.5042 1550.7 13 1573.5 39.5C1590.5 59.2564 1599 83 1616 83C1631.83 83 1634.97 77.5 1658.5 77.5C1682.03 77.5 1694.95 82.2867 1709.5 89C1722.5 95 1734 106 1741.5 99.5C1758.12 85.0957 1747.96 64 1743.35 56.351Z" stroke="white" stroke-width="0.5"/>
<path d="M1743.35 56.351C1733.32 39.7228 1723.32 27.4736 1694.79 15.0268C1679.64 8.42042 1664.69 5.53516 1646.73 4.07331C1631.56 2.8387 1613.99 2.96821 1603.28 3.04722C1601.1 3.06329 1599.2 3.07726 1597.67 3.07726H1500.55C1496.54 3.07726 1491.53 3.07726 1492.03 7.06032C1492.07 7.33735 1492.1 7.65292 1492.13 7.99999H274.868C274.9 7.65292 274.93 7.33735 274.965 7.06032C275.466 3.07726 270.46 3.07726 266.455 3.07726H169.334C167.799 3.07726 165.903 3.06329 163.724 3.04722C153.008 2.96821 135.444 2.8387 120.273 4.07331C102.309 5.53516 87.3584 8.42042 72.2126 15.0268C43.677 27.4736 33.6847 39.7228 23.6526 56.351C18.8495 64.3122 15.4865 72.9893 13.9472 81.7147C4.73044 103.267 5.14045 123.239 7.25357 130C9.75406 138 17.7536 144 17.7536 144C25.1866 150.123 35.1388 150.048 40.5883 150.006C41.0039 150.003 41.3934 150 41.7536 150H88.9534C90.3788 150.006 92.1649 150.015 94.1633 150.025H94.1645L94.1768 150.025L94.1899 150.025L94.2005 150.025C102.013 150.064 113.047 150.118 118.453 150.09C139.953 149.979 164.215 139.746 174.953 123.5C186.722 105.697 190.264 95.4334 193.632 85.6753C196.696 76.7978 199.615 68.3384 208.453 55C224.259 31.1453 238.174 31.2428 316.894 31.7945L316.929 31.7948C330.357 31.8889 345.671 31.9962 363.201 32H1401.55C1419.08 31.9962 1434.4 31.8889 1447.83 31.7948L1447.86 31.7945C1526.58 31.2428 1540.49 31.1453 1556.3 55C1565.14 68.3384 1568.06 76.7978 1571.12 85.6753C1574.49 95.4334 1578.03 105.697 1589.8 123.5C1600.54 139.746 1624.8 149.979 1646.3 150.09C1651.71 150.118 1662.74 150.064 1670.55 150.025L1670.56 150.025L1670.58 150.025L1670.59 150.025C1672.59 150.015 1674.38 150.006 1675.8 150H1723C1723.2 150 1723.4 150.001 1723.61 150.002L1724.17 150.006C1729.62 150.048 1739.57 150.123 1747 144C1747 144 1755 138 1757.5 130C1759.34 124.127 1759.89 108.285 1753.96 90.0979C1753.52 78.6256 1749.69 66.864 1743.35 56.351Z" stroke="white"/>
<path d="M1743.43 56.351C1733.4 39.7228 1723.41 27.4736 1694.87 15.0268C1679.72 8.42042 1664.77 5.53516 1646.81 4.07331C1631.64 2.8387 1614.07 2.96821 1603.36 3.04722C1601.18 3.06329 1599.28 3.07726 1597.75 3.07726H1500.63C1496.64 3.07726 1491.67 3.07726 1492.11 6.99999H274.055C274.498 3.07726 269.522 3.07726 265.537 3.07726H168.416C166.881 3.07726 164.986 3.06329 162.807 3.04722C152.091 2.96821 134.527 2.8387 119.355 4.07331C101.392 5.53516 86.4409 8.42042 71.2951 15.0268C42.7595 27.4736 32.7672 39.7228 22.7351 56.351C17.3408 65.292 13.763 75.1362 12.545 84.9374C1.80914 114.664 2.46753 155.724 3.60021 226.362L3.96466 249.09C7.68709 249 12.0005 249 17.0825 249H89.0825C105.884 249 114.285 249 120.702 252.27C126.347 255.146 130.937 259.735 133.813 265.38C137.083 271.798 137.083 280.198 137.083 297V486.077L137.093 486.079C137.205 552.32 138.458 587.79 152.56 615.467C165.943 641.734 187.164 652.541 213.264 665.834L214.616 666.523C244.991 682 284.755 682 364.282 682H1399.88C1479.41 682 1519.17 682 1549.55 666.523L1550.9 665.834C1577 652.541 1598.22 641.734 1611.61 615.467C1625.69 587.817 1626.96 552.388 1627.07 486.27L1627.08 486.268V297C1627.08 280.198 1627.08 271.798 1630.35 265.38C1633.23 259.735 1637.82 255.146 1643.46 252.27C1649.88 249 1658.28 249 1675.08 249H1747.08C1752.63 249 1757.26 249 1761.2 249.117L1761.57 226.362C1762.65 158.866 1763.3 118.375 1753.99 88.9734C1753.35 77.859 1749.57 66.5208 1743.43 56.351Z" stroke="white"/>
<path d="M273.722 7.07787L1492.12 7.07757C1491.62 3.07759 1496.62 3.07759 1500.62 3.07759H1597.62C1599.15 3.07759 1601.04 3.06355 1603.22 3.04742C1613.92 2.96807 1631.46 2.83802 1646.62 4.07787C1664.56 5.54592 1679.49 8.44344 1694.62 15.0779C1723.12 27.5775 1733.1 39.8788 1743.12 56.5776C1748.94 66.2869 1752.65 77.0568 1753.54 87.6859C1763.32 117.199 1762.66 157.893 1761.57 226.438V226.439L1758.59 412.057C1756.85 520.444 1755.98 574.638 1731.08 614.346C1717.13 636.574 1698.18 655.228 1675.73 668.812C1635.63 693.078 1581.43 693.078 1473.03 693.078H292.14C183.739 693.078 129.538 693.078 89.4359 668.812C66.9869 655.228 48.0318 636.574 34.0895 614.346C9.18356 574.638 8.31457 520.444 6.57658 412.057L3.60021 226.439C2.46572 155.689 1.80703 114.611 12.5965 84.873C13.8608 75.1666 17.4093 65.4312 22.7216 56.5776C32.7412 39.8788 42.7211 27.5775 71.2212 15.0779C86.3481 8.44344 101.28 5.54592 119.222 4.07787C134.374 2.83802 151.916 2.96807 162.619 3.04742C164.795 3.06356 166.689 3.07759 168.222 3.07759H265.222C269.222 3.07759 274.222 3.0779 273.722 7.07787ZM273.722 7.07787C273.722 7.07797 273.722 7.07777 273.722 7.07787Z" stroke="white" stroke-width="6"/>
<path d="M1749.54 112.936C1749.52 110.303 1749.5 107.537 1749.5 104.5C1749.5 88.9802 1736.49 81.2662 1727.46 75.9097C1726.02 75.0536 1724.67 74.2577 1723.5 73.4998C1715 67.9998 1678.5 46.9998 1639 40.9998C1599.5 34.9998 1587.56 36.3713 1579.5 41.4999C1574 45 1572 52.6664 1572 54.4997C1572.05 55.2718 1572.04 56.2254 1572 57.3431C1573.95 61.4508 1575.87 65.5275 1577.76 69.5215C1585.26 85.4185 1592.15 100.003 1597.5 110C1605 124 1626 139.5 1649.5 139.5H1714C1730 139.5 1734 138 1746 119.5C1747.37 117.385 1748.55 115.192 1749.54 112.936Z" stroke="white"/>
<path d="M16.0004 112.936C16.0216 110.303 16.0358 107.537 16.0358 104.5C16.0358 88.9802 29.0451 81.2662 38.0785 75.9097C39.5223 75.0536 40.8645 74.2577 42.0358 73.4998C50.5358 67.9998 87.0358 46.9998 126.536 40.9998C166.036 34.9998 177.977 36.3713 186.036 41.4999C191.536 45 193.536 52.6664 193.536 54.4997C193.491 55.2718 193.495 56.2254 193.539 57.3431C191.59 61.4508 189.666 65.5275 187.78 69.5215C180.276 85.4185 173.391 100.003 168.036 110C160.536 124 139.536 139.5 116.036 139.5H51.5363C35.5363 139.5 31.5363 138 19.5363 119.5C18.1647 117.385 16.989 115.192 16.0004 112.936Z" stroke="white"/>
<rect x="1469" y="431" width="119" height="119" rx="18" stroke="white" stroke-width="3"/>
<path d="M1507.35 468.695V468.326H1511.02V468.654C1511.02 469.611 1511.29 470.345 1511.84 470.855C1512.39 471.357 1513.16 471.607 1514.13 471.607C1515.13 471.607 1515.9 471.275 1516.46 470.609C1517.02 469.935 1517.31 468.923 1517.31 467.574C1517.31 466.234 1517.02 465.255 1516.46 464.635C1515.89 464.015 1515.15 463.705 1514.22 463.705C1513.51 463.705 1512.9 463.846 1512.38 464.129C1511.87 464.411 1511.42 464.785 1511.04 465.25L1508.02 464.17L1509.04 454.094H1519.99V457.074L1511.93 457.047L1511.43 462.037C1511.84 461.736 1512.34 461.486 1512.95 461.285C1513.56 461.076 1514.23 460.971 1514.97 460.971C1516.67 460.971 1518.1 461.522 1519.26 462.625C1520.43 463.728 1521.01 465.332 1521.01 467.438C1521.01 469.589 1520.4 471.284 1519.17 472.523C1517.94 473.754 1516.28 474.369 1514.16 474.369C1512 474.369 1510.32 473.85 1509.13 472.811C1507.95 471.762 1507.35 470.391 1507.35 468.695Z" fill="white"/>
<path d="M1493.85 474V454.094H1497.54V471.102H1506.08V474H1493.85Z" fill="white"/>
<rect x="176" y="431" width="119" height="119" rx="18" stroke="white" stroke-width="3"/>
<path d="M261.514 468.695V468.326H265.178V468.654C265.178 469.611 265.451 470.345 265.998 470.855C266.554 471.357 267.32 471.607 268.295 471.607C269.288 471.607 270.063 471.275 270.619 470.609C271.184 469.935 271.467 468.923 271.467 467.574C271.467 466.234 271.184 465.255 270.619 464.635C270.054 464.015 269.307 463.705 268.377 463.705C267.675 463.705 267.064 463.846 266.545 464.129C266.025 464.411 265.579 464.785 265.205 465.25L262.184 464.17L263.195 454.094H274.146V457.074L266.094 457.047L265.588 462.037C265.998 461.736 266.504 461.486 267.105 461.285C267.716 461.076 268.391 460.971 269.129 460.971C270.833 460.971 272.264 461.522 273.422 462.625C274.589 463.728 275.172 465.332 275.172 467.438C275.172 469.589 274.557 471.284 273.326 472.523C272.105 473.754 270.437 474.369 268.322 474.369C266.162 474.369 264.485 473.85 263.291 472.811C262.106 471.762 261.514 470.391 261.514 468.695Z" fill="white"/>
<path d="M245.846 474V454.094H252.873C255.006 454.094 256.665 454.645 257.85 455.748C259.035 456.842 259.627 458.327 259.627 460.205C259.627 462.101 259.025 463.618 257.822 464.758C256.619 465.888 254.96 466.453 252.846 466.453H249.537V474H245.846ZM249.537 463.76H252.559C253.807 463.76 254.682 463.436 255.184 462.789C255.685 462.142 255.936 461.308 255.936 460.287C255.936 459.266 255.685 458.441 255.184 457.812C254.682 457.184 253.807 456.869 252.559 456.869H249.537V463.76ZM256.455 474L251.943 464.922L255.621 464.471L260.557 474H256.455Z" fill="white"/>
<rect x="1469" y="296" width="119" height="119" rx="18" stroke="white" stroke-width="3"/>
<path d="M1515.6 343V337.682L1515.64 337.148V328.193H1515.5L1510.62 335.795H1516.68L1517.47 335.754H1521.49V338.625H1506.94V336.137L1515.79 323.094H1519.12V343H1515.6Z" fill="white"/>
<path d="M1493.85 343V323.094H1497.54V340.102H1506.08V343H1493.85Z" fill="white"/>
<rect x="176" y="296" width="119" height="119" rx="18" stroke="white" stroke-width="3"/>
<path d="M269.758 343V337.682L269.799 337.148V328.193H269.662L264.781 335.795H270.838L271.631 335.754H275.65V338.625H261.104V336.137L269.949 323.094H273.285V343H269.758Z" fill="white"/>
<path d="M245.846 343V323.094H252.873C255.006 323.094 256.665 323.645 257.85 324.748C259.035 325.842 259.627 327.327 259.627 329.205C259.627 331.101 259.025 332.618 257.822 333.758C256.619 334.888 254.96 335.453 252.846 335.453H249.537V343H245.846ZM249.537 332.76H252.559C253.807 332.76 254.682 332.436 255.184 331.789C255.685 331.142 255.936 330.308 255.936 329.287C255.936 328.266 255.685 327.441 255.184 326.812C254.682 326.184 253.807 325.869 252.559 325.869H249.537V332.76ZM256.455 343L251.943 333.922L255.621 333.471L260.557 343H256.455Z" fill="white"/>
</svg>

<svg width="1766" height="697" fill="none" xmlns="http://www.w3.org/2000/svg"><path d="M377 449c0-12.15 9.85-22 22-22s22 9.85 22 22v100c0 12.15-9.85 22-22 22s-22-9.85-22-22V449Zm56 0c0-12.15 9.85-22 22-22s22 9.85 22 22v100c0 12.15-9.85 22-22 22s-22-9.85-22-22V449Zm56 0c0-12.15 9.85-22 22-22s22 9.85 22 22v100c0 12.15-9.85 22-22 22s-22-9.85-22-22V449Zm56 0c0-12.15 9.85-22 22-22s22 9.85 22 22v100c0 12.15-9.85 22-22 22s-22-9.85-22-22V449Zm56 0c0-12.15 9.85-22 22-22s22 9.85 22 22v100c0 12.15-9.85 22-22 22s-22-9.85-22-22V449Zm56 0c0-12.15 9.85-22 22-22s22 9.85 22 22v100c0 12.15-9.85 22-22 22s-22-9.85-22-22V449Z" stroke="#fff" stroke-width=".5"/><path d="M1743.35 56.351c-10.03-16.628-20.03-28.877-48.56-41.324-15.15-6.607-30.1-9.492-48.06-10.954-18.26-1.485-39.98-.996-49.06-.996h-97.12c-4.01 0-9.02 0-8.52 3.983.51 3.983 0 15.933 19.53 14.937 19.52-.996 46.06 4.979 57.07 27.882 11.01 22.902 21.53 45.805 29.04 59.746 7.51 13.941 28.53 29.375 52.06 29.375h64.58c16.02 0 20.03-1.494 32.04-19.915 12.02-18.422 9.01-42.819-3-62.734Zm-1720.697 0c10.032-16.628 20.024-28.877 48.56-41.324 15.145-6.607 30.096-9.492 48.06-10.954 18.256-1.485 39.977-.996 49.061-.996h97.121c4.005 0 9.011 0 8.51 3.983-.5 3.983 0 15.933-19.524 14.937-19.524-.996-46.057 4.979-57.071 27.882-11.014 22.902-21.527 45.805-29.036 59.746-7.51 13.941-28.536 29.375-52.065 29.375h-64.58c-16.02 0-20.025-1.494-32.04-19.915-12.015-18.422-9.012-42.819 3.004-62.734Z" stroke="#fff"/><path d="M22.653 56.351c10.032-16.628 20.024-28.877 48.56-41.324 15.145-6.607 30.096-9.492 48.06-10.954 18.256-1.485 39.977-.996 49.061-.996h97.121c4.005 0 9.011 0 8.51 3.983-.5 3.983-.441 10.436-19.965 9.44-19.524-.996-38.697-3.5-61.5 23C175.5 59.256 167 83 150 83c-15.835 0-18.971-5.5-42.5-5.5-23.53 0-36.455 4.787-51 11.5-13 6-24.5 17-32 10.5C7.88 85.096 18.038 64 22.653 56.351Zm1720.697 0c-10.03-16.628-20.03-28.877-48.56-41.324-15.15-6.607-30.1-9.492-48.06-10.954-18.26-1.485-39.98-.996-49.06-.996h-97.12c-4.01 0-9.02 0-8.52 3.983.51 3.983.45 10.436 19.97 9.44 19.52-.996 38.7-3.5 61.5 23 17 19.756 25.5 43.5 42.5 43.5 15.83 0 18.97-5.5 42.5-5.5s36.45 4.787 51 11.5c13 6 24.5 17 32 10.5 16.62-14.404 6.46-35.5 1.85-43.149Z" stroke="#fff" stroke-width=".5"/><path d="M1743.35 56.351c-10.03-16.628-20.03-28.877-48.56-41.324-15.15-6.607-30.1-9.492-48.06-10.954-15.17-1.234-32.74-1.105-43.45-1.026-2.18.016-4.08.03-5.61.03h-97.12c-4.01 0-9.02 0-8.52 3.983.04.277.07.593.1.94H274.868c.032-.347.062-.663.097-.94.501-3.983-4.505-3.983-8.51-3.983h-97.121c-1.535 0-3.431-.014-5.61-.03-10.716-.079-28.28-.208-43.451 1.026-17.964 1.462-32.915 4.347-48.06 10.954-28.536 12.447-38.528 24.696-48.56 41.324-4.803 7.961-8.166 16.638-9.706 25.364C4.73 103.267 5.14 123.239 7.254 130c2.5 8 10.5 14 10.5 14 7.433 6.123 17.385 6.048 22.834 6.006.416-.003.805-.006 1.166-.006h47.2l5.21.025h.036c7.813.039 18.847.093 24.253.065 21.5-.111 45.762-10.344 56.5-26.59 11.769-17.803 15.311-28.067 18.679-37.825 3.064-8.877 5.983-17.337 14.821-30.675 15.806-23.855 29.721-23.757 108.441-23.206h.035c13.428.095 28.742.202 46.272.206H1401.55c17.53-.004 32.85-.111 46.28-.205h.03c78.72-.552 92.63-.65 108.44 23.205 8.84 13.338 11.76 21.798 14.82 30.675 3.37 9.758 6.91 20.022 18.68 37.825 10.74 16.246 35 26.479 56.5 26.59 5.41.028 16.44-.026 24.25-.065h.04l5.21-.025h47.2l.61.002.56.004c5.45.042 15.4.117 22.83-6.006 0 0 8-6 10.5-14 1.84-5.873 2.39-21.715-3.54-39.902-.44-11.472-4.27-23.234-10.61-33.747Z" stroke="#fff"/><path d="M1743.43 56.351c-10.03-16.628-20.02-28.877-48.56-41.324-15.15-6.607-30.1-9.492-48.06-10.954-15.17-1.234-32.74-1.105-43.45-1.026-2.18.016-4.08.03-5.61.03h-97.12c-3.99 0-8.96 0-8.52 3.923H274.055c.443-3.923-4.533-3.923-8.518-3.923h-97.121c-1.535 0-3.43-.014-5.609-.03-10.716-.079-28.28-.208-43.452 1.026-17.963 1.462-32.914 4.347-48.06 10.954C42.76 27.474 32.767 39.723 22.735 56.35c-5.394 8.941-8.972 18.785-10.19 28.586C1.809 114.664 2.468 155.724 3.6 226.362l.365 22.728C7.687 249 12 249 17.082 249h72c16.802 0 25.203 0 31.62 3.27a29.997 29.997 0 0 1 13.111 13.11c3.27 6.418 3.27 14.818 3.27 31.62v189.077l.01.002c.112 66.241 1.365 101.711 15.467 129.388 13.383 26.267 34.604 37.074 60.704 50.367l1.352.689C244.991 682 284.755 682 364.282 682H1399.88c79.53 0 119.29 0 149.67-15.477l1.35-.689c26.1-13.293 47.32-24.1 60.71-50.367 14.08-27.65 15.35-63.079 15.46-129.197l.01-.002V297c0-16.802 0-25.202 3.27-31.62a30.04 30.04 0 0 1 13.11-13.11c6.42-3.27 14.82-3.27 31.62-3.27h72c5.55 0 10.18 0 14.12.117l.37-22.755c1.08-67.496 1.73-107.987-7.58-137.389-.64-11.114-4.42-22.452-10.56-32.622Z" stroke="#fff"/><path d="M273.722 7.078H1492.12c-.5-4 4.5-4 8.5-4h97c1.53 0 3.42-.014 5.6-.03 10.7-.08 28.24-.21 43.4 1.03 17.94 1.468 32.87 4.365 48 11 28.5 12.5 38.48 24.8 48.5 41.5 5.82 9.709 9.53 20.479 10.42 31.108 9.78 29.513 9.12 70.207 8.03 138.752v.001l-2.98 185.618c-1.74 108.387-2.61 162.581-27.51 202.289a168.077 168.077 0 0 1-55.35 54.466c-40.1 24.266-94.3 24.266-202.7 24.266H292.14c-108.401 0-162.602 0-202.704-24.266a168.003 168.003 0 0 1-55.347-54.466C9.184 574.638 8.316 520.444 6.578 412.057L3.6 226.439c-1.134-70.75-1.793-111.828 8.997-141.566 1.264-9.706 4.812-19.442 10.125-28.295 10.02-16.7 20-29 48.5-41.5 15.126-6.635 30.058-9.532 48-11 15.152-1.24 32.694-1.11 43.397-1.03 2.176.016 4.07.03 5.603.03h97c4 0 9 0 8.5 4Zm0 0Z" stroke="#fff" stroke-width="6"/><path d="M1749.54 112.936c-.02-2.633-.04-5.399-.04-8.436 0-15.52-13.01-23.234-22.04-28.59-1.44-.856-2.79-1.652-3.96-2.41-8.5-5.5-45-26.5-84.5-32.5s-51.44-4.629-59.5.5c-5.5 3.5-7.5 11.166-7.5 13 .05.772.04 1.725 0 2.843 1.95 4.108 3.87 8.184 5.76 12.178 7.5 15.897 14.39 30.482 19.74 40.479 7.5 14 28.5 29.5 52 29.5h64.5c16 0 20-1.5 32-20a46.261 46.261 0 0 0 3.54-6.564Zm-1733.54 0c.021-2.633.035-5.399.035-8.436 0-15.52 13.01-23.234 22.043-28.59 1.444-.856 2.786-1.652 3.957-2.41 8.5-5.5 45-26.5 84.5-32.5s51.441-4.629 59.5.5c5.5 3.5 7.501 11.166 7.501 13-.046.772-.042 1.725.003 2.843-1.95 4.108-3.874 8.184-5.759 12.178-7.504 15.897-14.389 30.482-19.744 40.479-7.5 14-28.501 29.5-52.001 29.5h-64.5c-16 0-20-1.5-32-20A45.933 45.933 0 0 1 16 112.936Z" stroke="#fff"/><rect x="1469" y="431" width="119" height="119" rx="18" stroke="#fff" stroke-width="3"/><path d="M1507.35 468.695v-.369h3.67v.328c0 .957.27 1.691.82 2.201.55.502 1.32.752 2.29.752 1 0 1.77-.332 2.33-.998.56-.674.85-1.686.85-3.035 0-1.34-.29-2.319-.85-2.939-.57-.62-1.31-.93-2.24-.93-.71 0-1.32.141-1.84.424-.52.282-.96.656-1.34 1.121l-3.02-1.08 1.01-10.076h10.96v2.98l-8.06-.027-.5 4.99c.41-.301.91-.551 1.51-.752a6.29 6.29 0 0 1 2.03-.314c1.7 0 3.13.551 4.29 1.654 1.17 1.103 1.75 2.707 1.75 4.813 0 2.151-.61 3.846-1.84 5.085-1.23 1.231-2.89 1.846-5.01 1.846-2.16 0-3.84-.519-5.03-1.558-1.18-1.049-1.78-2.42-1.78-4.116Zm-13.5 5.305v-19.906h3.69v17.008h8.54V474h-12.23Z" fill="#fff"/><rect x="176" y="431" width="119" height="119" rx="18" stroke="#fff" stroke-width="3"/><path d="M261.513 468.695v-.369h3.664v.328c0 .957.274 1.691.821 2.201.556.502 1.321.752 2.296.752.994 0 1.769-.332 2.325-.998.565-.674.847-1.686.847-3.035 0-1.34-.282-2.319-.847-2.939-.565-.62-1.313-.93-2.243-.93-.701 0-1.312.141-1.832.424a4.387 4.387 0 0 0-1.339 1.121l-3.022-1.08 1.012-10.076h10.951v2.98l-8.053-.027-.506 4.99c.411-.301.916-.551 1.518-.752a6.217 6.217 0 0 1 2.023-.314c1.705 0 3.136.551 4.293 1.654 1.167 1.103 1.75 2.707 1.75 4.813 0 2.151-.615 3.846-1.845 5.085-1.222 1.231-2.89 1.846-5.004 1.846-2.16 0-3.837-.519-5.031-1.558-1.185-1.049-1.778-2.42-1.778-4.116ZM245.845 474v-19.906h7.028c2.132 0 3.791.551 4.976 1.654 1.185 1.094 1.777 2.579 1.777 4.457 0 1.896-.601 3.413-1.804 4.553-1.203 1.13-2.862 1.695-4.977 1.695h-3.308V474h-3.692Zm3.692-10.24h3.021c1.249 0 2.124-.324 2.625-.971.501-.647.752-1.481.752-2.502 0-1.021-.251-1.846-.752-2.475-.501-.628-1.376-.943-2.625-.943h-3.021v6.891Zm6.918 10.24-4.512-9.078 3.678-.451 4.935 9.529h-4.101Z" fill="#fff"/><rect x="1469" y="296" width="119" height="119" rx="18" stroke="#fff" stroke-width="3"/><path d="M1515.6 343v-5.318l.04-.534v-8.955h-.14l-4.88 7.602h6.06l.79-.041h4.02v2.871h-14.55v-2.488l8.85-13.043h3.33V343h-3.52Zm-21.75 0v-19.906h3.69v17.008h8.54V343h-12.23Z" fill="#fff"/><rect x="176" y="296" width="119" height="119" rx="18" stroke="#fff" stroke-width="3"/><path d="M269.757 343v-5.318l.041-.534v-8.955h-.136l-4.881 7.602h6.056l.793-.041h4.02v2.871h-14.547v-2.488l8.846-13.043h3.336V343h-3.528Zm-23.912 0v-19.906h7.028c2.132 0 3.791.551 4.976 1.654 1.185 1.094 1.777 2.579 1.777 4.457 0 1.896-.601 3.413-1.804 4.553-1.203 1.13-2.862 1.695-4.977 1.695h-3.308V343h-3.692Zm3.692-10.24h3.021c1.249 0 2.124-.324 2.625-.971.501-.647.752-1.481.752-2.502 0-1.021-.251-1.846-.752-2.475-.501-.628-1.376-.943-2.625-.943h-3.021v6.891Zm6.918 10.24-4.512-9.078 3.678-.451 4.935 9.529h-4.101Z" fill="#fff"/></svg>
